!!!!SEGMENT: pl-kk--kk-i-88--003-007_golabek-jakub--missa-3-benedictus.krn
!!!cenid: 17xx:2588
!!!COM: Gołąbek, Jakub
!!!COM-rismID: pe30008748
!!!CDT: 1739-1789/03/30
!!!CNT: Polish
!!!OPR: Missa 3
!!!OTL: Benedictus
!!!OMV: 007
!!!PDT:
!!!AGN: Sacred; Mass
!!!YEC: Copyright 2022 Narodowy Instytut Fryderyka Chopina (https://polishscores.org)
!!!YEM: License CC-BY-4.0 (https://creativecommons.org/licenses/by/4.0)
!!!SMS-siglum: PL-Kk
!!!SMS-shelfmark: Kk.I.88
!!!SMS-variant:
!!!SMS-altvar:
!!!SMS-shelfwork: 003-007 M
!!!NIFC-rismSourceID: 1001164072
!!!NIFC-rismChildID: 1001164082
!!!NIFC-islandoraID:
!!!URL-pdf-islandora: https://repozytorium.nifc.pl/islandora/object/pl-kk%3A3086/datastream/PDF/view
!!!URL-scan: https://polish.musicsources.pl/pl/lokalizacje/galeria/rekopisy/6148-missa/4 @EN{Scan on Polish Music Sources Website} @PL{Skany w portalu Dziedzictwo Muzyki Polskiej w otwartym dostępie}
!!!IIIF:
!!!ONB-nifc: UWAGA: C - f. 6r-7v; A - f. 14r-15v; T - f. 22r-23v; B - f. 30r-31v; B rip - f. 35r-36v. Proszę uwzględniać B rip. Części Mszy: 1. Kyrie, 2. Christe, 3. Et in terra, 4. Quoniam, 5. Sanctus, 6. Osanna, 7. Benedictus, 8. Agnus Dei.
!!!AIN: 1 alto 2 bass 1 soprn 1 tenor
!!!key:
**kern	**text	**kern	**text	**kern	**text	**kern	**text	**kern	**text
*part5	*part5	*part4	*part4	*part3	*part3	*part2	*part2	*part1	*part1
*staff5	*staff5	*staff4	*staff4	*staff3	*staff3	*staff2	*staff2	*staff1	*staff1
*I"Baſso E ripieno	*	*I"Baſso	*	*I"Tenore	*	*I"Alto	*	*I"Canto	*
*I'B.	*	*I'B.	*	*I'T.	*	*I'A.	*	*I'C.	*
*Ibass	*	*Ibass	*	*Itenor	*	*Ialto	*	*Isoprn	*
*ICvox	*	*ICvox	*	*ICvox	*	*ICvox	*	*ICvox	*
*clefF4	*	*clefF4	*	*clefC4	*	*clefC3	*	*clefC1	*
*k[]	*	*k[]	*	*k[]	*	*k[]	*	*k[]	*
*C:	*	*C:	*	*C:	*	*C:	*	*C:	*
*M2/2	*	*M2/2	*	*M2/2	*	*M2/2	*	*M2/2	*
*met(c|)	*	*met(c|)	*	*met(c|)	*	*met(c|)	*	*met(c|)	*
=1	=1	=1	=1	=1	=1	=1	=1	=1	=1
1r	.	0r	.	1r	.	4c\	Be-	0r	.
.	.	.	.	.	.	4d\	-ne-	.	.
.	.	.	.	.	.	8f\L	-di-	.	.
.	.	.	.	.	.	8e\J	.	.	.
.	.	.	.	.	.	8d\	-ctus	.	.
.	.	.	.	.	.	8c\	qui	.	.
=2	=2	=2	=2	=2	=2	=2	=2	=2	=2
*	*	*	*	*	*	*2\right	*	*	*
1r	.	.	.	4G\	Be-	2g\	ve-	.	.
.	.	.	.	4A\	-ne-	.	.	.	.
.	.	.	.	8c\L	-dic-	4g\	-nit	.	.
.	.	.	.	8B\J	.	.	.	.	.
.	.	.	.	8A\	-tus	4f\	qui	.	.
.	.	.	.	8G\	qui	.	.	.	.
=3	=3	=3	=3	=3	=3	=3	=3	=3	=3
4C/	Be-	4C/	Be-	4c\	ve-	4e\	ve-	1r	.
4D/	-ne-	4D/	-ne-	4B\	.	4d\	.	.	.
8F/L	-di-	8F/L	-di-	4c\	-nit	4e\	-nit	.	.
8E/J	.	8E/J	.	.	.	.	.	.	.
8D/	-ctus	8D/	-ctus	4c\	qui	4e\	qui	.	.
8C/	qui	8C/	qui	.	.	.	.	.	.
=4	=4	=4	=4	=4	=4	=4	=4	=4	=4
*2\right	*	*2\right	*	*2\right	*	*	*	*	*
2G\	ve-	2G\	ve-	2B\	ve-	2d\	ve-	4g\	qui
.	.	.	.	.	.	.	.	4a\	.
4G\	-nit	4G\	-nit	4B\	-nit	4d\	-nit	8cc\L	ve-
.	.	.	.	.	.	.	.	8b\J	.
4F\	in	4F\	in	4d\	in	4f\	in	8a\	-nit
.	.	.	.	.	.	.	.	8g/	in
=5	=5	=5	=5	=5	=5	=5	=5	=5	=5
4E\	no-	4E\	no-	4c\	no-	4g\	no-	2g/	no-
4D\	.	4D\	.	4B\	.	4f\	.	.	.
!	!	!	!	!	!	!LO:LB:g=original	!	!	!
4C\	-mi-	4C/	-mi-	4c\	-mi-	4e\	-mi-	4g/	-mi-
4G\	-ne	4G\	-ne	4B\	-ne	4d\	-ne	4g/	-ne
!	!	!	!	!LO:LB:g=original	!	!	!	!	!
=6	=6	=6	=6	=6	=6	=6	=6	=6	=6
4C/	Do-	4C/	Do-	2.c\	Do-	2.e\	Do-	2.g/	Do-
8C/L	.	8C/L	.	.	.	.	.	.	.
8D/J	.	8D/J	.	.	.	.	.	.	.
8E\L	.	8E\L	.	.	.	.	.	.	.
8D\J	.	8D\J	.	.	.	.	.	.	.
8E\L	-mi-	8E\L	-mi-	4c\	-mi-	4e\	-mi-	4a/	-mi-
8F#X\J	.	8F#X\J	.	.	.	.	.	.	.
=7	=7	=7	=7	=7	=7	=7	=7	=7	=7
2G\	-ni	2G\	-ni	2B\	-ni	2d\	-ni,	2g/	-ni,
4r	.	4r	.	4r	.	4r	.	4r	.
4G\	qui	4G\	qui	4G/	qui	4d\	qui	4b\	qui
!LO:LB:g=original	!	!	!	!	!	!	!	!	!
=8	=8	=8	=8	=8	=8	=8	=8	=8	=8
*	*	*	*	*	*	*	*	*2\right	*
2G\	ve-	2G\	ve-	2B\	ve-	2f\	ve-	2dd\	ve-
4G\	-nit	4G\	-nit	4B\	-nit	4f\	-nit	4dd\	-nit
4G\	in	4G\	in	4B\	in	4f\	in	4dd\	in
!	!	!	!	!	!	!	!	!LO:PB:g=original	!
=9	=9	=9	=9	=9	=9	=9	=9	=9	=9
4E\	no-	4E\	no-	2G/	no-	4g\	no-	4cc\	no-
4D\	.	4D\	.	.	.	4f\	.	4b\	.
4C/	-mi-	4C/	-mi-	4G/	-mi-	4e\	-mi-	4cc\	-mi-
4BB/	-ne	4BB/	-ne	4G/	-ne	4f\	-ne	4dd\	-ne
=10	=10	=10	=10	=10	=10	=10	=10	=10	=10
4C\	Do-	4C\	Do-	4E/	Do-	4g\	Do-	4ee\	Do-
4D\	.	4D\	.	4F/	.	4f\	.	4dd\	.
4E\	.	4E\	.	2G/	.	4e\	.	4cc\	.
4F\	.	4F\	.	.	.	4d\	.	4b\	.
=11	=11	=11	=11	=11	=11	=11	=11	=11	=11
2G\	.	2G\	.	2G/	.	2e\	.	2cc\	.
2GG/	-mi-	2GG/	-mi-	2G/	-mi-	2d\	-mi-	2b\	-mi-
=12	=12	=12	=12	=12	=12	=12	=12	=12	=12
2C/	-ni,	2C/	-ni,	2G/	-ni,	2e\	-ni,	2cc\	-ni
4r	.	4r	.	4r	.	4r	.	4r	.
4G\	qui	4G\	qui	4G/	qui	4d\	qui	4b\	qui
!	!	!	!	!LO:PB:g=original	!	!LO:PB:g=original	!	!	!
=13	=13	=13	=13	=13	=13	=13	=13	=13	=13
2G\	ve-	2G\	ve-	2B\	ve-	2f\	ve-	2dd\	ve-
4G\	-nit	4G\	-nit	4B\	-nit	4f\	-nit	4dd\	-nit
4G\	in	4G\	in	4B\	in	4f\	in	4dd\	in
=14	=14	=14	=14	=14	=14	=14	=14	=14	=14
4E\	no-	4E\	no-	2G/	no-	4g\	no-	4cc\	no-
4D\	.	4D\	.	.	.	4f\	.	4b\	.
4C/	-mi-	4C/	-mi-	4G/	-mi-	4e\	-mi-	4cc\	-mi-
4BB/	-ne	4BB/	-ne	4G/	-ne	4f\	-ne	4dd\	-ne
=15	=15	=15	=15	=15	=15	=15	=15	=15	=15
4C\	Do-	4C\	Do-	4E/	Do-	4g\	Do-	4ee\	Do-
4D\	.	4D\	.	4F/	.	4f\	.	4dd\	.
4E\	.	4E\	.	2G/	.	4e\	.	4cc\	.
4F\	.	4F\	.	.	.	4d\	.	4b\	.
=16	=16	=16	=16	=16	=16	=16	=16	=16	=16
2G\	.	2G\	.	2.G/	.	2e\	.	2cc\	.
2GG/	-mi-	2GG/	-mi-	.	.	2d\	-mi-	2b\	-mi-
.	.	.	.	4G/	-mi-	.	.	.	.
=17	=17	=17	=17	=17	=17	=17	=17	=17	=17
!	!	!	!	!	!	!LO:TX:b:t=Da Capo Osanna	!	!	!
2C/	-ni	2C/	-ni	2G/	-ni	1e	-ni	2cc\	-ni
!LO:TX:b:t=Osanna Da Capo	!	!LO:TX:b:t=Osanna\nda Capo	!	!LO:TX:b:t=Osanna da Capo	!	!	!	!	!
2r	.	2r	.	2r	.	.	.	2r	.
==	==	==	==	==	==	==	==	==	==
*-	*-	*-	*-	*-	*-	*-	*-	*-	*-
!!!system-decoration: [(s1,s2,s3,s4)]s5
!!!ENC: Berenika Jozajtis
!!!END: 2024-02-28
!!!EED: Andrzej Borzym
!!!END: 2025-12-16
